images/footer/sun.svg

<svg width="28" height="28" viewBox="0 0 28 28" fill="none" xmlns="http://www.w3.org/2000/svg">
<path fill-rule="evenodd" clip-rule="evenodd" d="M14 0C14.3713 0 14.7274 0.147499 14.99 0.41005C15.2525 0.672601 15.4 1.0287 15.4 1.4V2.8C15.4 3.1713 15.2525 3.5274 14.99 3.78995C14.7274 4.0525 14.3713 4.2 14 4.2C13.6287 4.2 13.2726 4.0525 13.0101 3.78995C12.7475 3.5274 12.6 3.1713 12.6 2.8V1.4C12.6 1.21615 12.6362 1.0341 12.7066 0.864243C12.7769 0.694387 12.88 0.540052 13.0101 0.41005C13.1401 0.280048 13.2944 0.176925 13.4642 0.106569C13.6341 0.036212 13.8161 0 14 0ZM4.1 4.1C4.23 3.96998 4.38435 3.86685 4.55421 3.79648C4.72408 3.72612 4.90614 3.6899 5.09 3.6899C5.27386 3.6899 5.45592 3.72612 5.62579 3.79648C5.79565 3.86685 5.95 3.96998 6.08 4.1L7.07 5.09C7.20001 5.22001 7.30314 5.37435 7.3735 5.54422C7.44386 5.71408 7.48007 5.89614 7.48007 6.08C7.48007 6.26386 7.44386 6.44592 7.3735 6.61578C7.30314 6.78565 7.20001 6.93999 7.07 7.07C6.93999 7.20001 6.78565 7.30314 6.61578 7.3735C6.44592 7.44386 6.26386 7.48007 6.08 7.48007C5.89614 7.48007 5.71408 7.44386 5.54422 7.3735C5.37435 7.30314 5.22001 7.20001 5.09 7.07L4.1 6.08C3.96998 5.95 3.86685 5.79565 3.79648 5.62579C3.72612 5.45592 3.6899 5.27386 3.6899 5.09C3.6899 4.90614 3.72612 4.72408 3.79648 4.55421C3.86685 4.38435 3.96998 4.23 4.1 4.1ZM23.9 4.1C24.03 4.23 24.1332 4.38435 24.2035 4.55421C24.2739 4.72408 24.3101 4.90614 24.3101 5.09C24.3101 5.27386 24.2739 5.45592 24.2035 5.62579C24.1332 5.79565 24.03 5.95 23.9 6.08L22.91 7.07C22.6474 7.33256 22.2913 7.48007 21.92 7.48007C21.5487 7.48007 21.1926 7.33256 20.93 7.07C20.6674 6.80744 20.5199 6.45132 20.5199 6.08C20.5199 5.70868 20.6674 5.35256 20.93 5.09L21.92 4.1C22.05 3.96998 22.2043 3.86685 22.3742 3.79648C22.5441 3.72612 22.7261 3.6899 22.91 3.6899C23.0939 3.6899 23.2759 3.72612 23.4458 3.79648C23.6157 3.86685 23.77 3.96998 23.9 4.1ZM7 14C7 12.1435 7.7375 10.363 9.05025 9.05025C10.363 7.7375 12.1435 7 14 7C15.8565 7 17.637 7.7375 18.9497 9.05025C20.2625 10.363 21 12.1435 21 14C21 15.8565 20.2625 17.637 18.9497 18.9497C17.637 20.2625 15.8565 21 14 21C12.1435 21 10.363 20.2625 9.05025 18.9497C7.7375 17.637 7 15.8565 7 14ZM0 14C0 13.6287 0.147499 13.2726 0.41005 13.0101C0.672601 12.7475 1.0287 12.6 1.4 12.6H2.8C2.98385 12.6 3.1659 12.6362 3.33576 12.7066C3.50561 12.7769 3.65995 12.88 3.78995 13.0101C3.91995 13.1401 4.02308 13.2944 4.09343 13.4642C4.16379 13.6341 4.2 13.8161 4.2 14C4.2 14.1839 4.16379 14.3659 4.09343 14.5358C4.02308 14.7056 3.91995 14.8599 3.78995 14.99C3.65995 15.12 3.50561 15.2231 3.33576 15.2934C3.1659 15.3638 2.98385 15.4 2.8 15.4H1.4C1.0287 15.4 0.672601 15.2525 0.41005 14.99C0.147499 14.7274 0 14.3713 0 14ZM23.8 14C23.8 13.6287 23.9475 13.2726 24.2101 13.0101C24.4726 12.7475 24.8287 12.6 25.2 12.6H26.6C26.7839 12.6 26.9659 12.6362 27.1358 12.7066C27.3056 12.7769 27.4599 12.88 27.5899 13.0101C27.72 13.1401 27.8231 13.2944 27.8934 13.4642C27.9638 13.6341 28 13.8161 28 14C28 14.1839 27.9638 14.3659 27.8934 14.5358C27.8231 14.7056 27.72 14.8599 27.5899 14.99C27.4599 15.12 27.3056 15.2231 27.1358 15.2934C26.9659 15.3638 26.7839 15.4 26.6 15.4H25.2C24.8287 15.4 24.4726 15.2525 24.2101 14.99C23.9475 14.7274 23.8 14.3713 23.8 14ZM20.93 20.93C21.06 20.8 21.2143 20.6968 21.3842 20.6265C21.5541 20.5561 21.7361 20.5199 21.92 20.5199C22.1039 20.5199 22.2859 20.5561 22.4558 20.6265C22.6257 20.6968 22.78 20.8 22.91 20.93L23.9 21.92C24.03 22.05 24.1331 22.2044 24.2035 22.3742C24.2739 22.5441 24.3101 22.7261 24.3101 22.91C24.3101 23.0939 24.2739 23.2759 24.2035 23.4458C24.1331 23.6156 24.03 23.77 23.9 23.9C23.77 24.03 23.6156 24.1331 23.4458 24.2035C23.2759 24.2739 23.0939 24.3101 22.91 24.3101C22.7261 24.3101 22.5441 24.2739 22.3742 24.2035C22.2044 24.1331 22.05 24.03 21.92 23.9L20.93 22.91C20.8 22.78 20.6968 22.6257 20.6265 22.4558C20.5561 22.2859 20.5199 22.1039 20.5199 21.92C20.5199 21.7361 20.5561 21.5541 20.6265 21.3842C20.6968 21.2143 20.8 21.06 20.93 20.93ZM5.09 20.93C5.35256 20.6674 5.70868 20.5199 6.08 20.5199C6.45132 20.5199 6.80744 20.6674 7.07 20.93C7.33256 21.1926 7.48007 21.5487 7.48007 21.92C7.48007 22.2913 7.33256 22.6474 7.07 22.91L6.08 23.9C5.94999 24.03 5.79565 24.1331 5.62578 24.2035C5.45592 24.2739 5.27386 24.3101 5.09 24.3101C4.90614 24.3101 4.72408 24.2739 4.55422 24.2035C4.38435 24.1331 4.23001 24.03 4.1 23.9C3.96999 23.77 3.86686 23.6156 3.7965 23.4458C3.72614 23.2759 3.68993 23.0939 3.68993 22.91C3.68993 22.7261 3.72614 22.5441 3.7965 22.3742C3.86686 22.2044 3.96999 22.05 4.1 21.92L5.09 20.93ZM14 23.8C14.3713 23.8 14.7274 23.9475 14.99 24.2101C15.2525 24.4726 15.4 24.8287 15.4 25.2V26.6C15.4 26.9713 15.2525 27.3274 14.99 27.5899C14.7274 27.8525 14.3713 28 14 28C13.6287 28 13.2726 27.8525 13.0101 27.5899C12.7475 27.3274 12.6 26.9713 12.6 26.6V25.2C12.6 24.8287 12.7475 24.4726 13.0101 24.2101C13.2726 23.9475 13.6287 23.8 14 23.8Z" fill="#676767"/>
</svg>

<svg width="28" height="28" fill="none" xmlns="http://www.w3.org/2000/svg"><path fill-rule="evenodd" clip-rule="evenodd" d="M14 0a1.4 1.4 0 0 1 1.4 1.4v1.4a1.4 1.4 0 0 1-2.8 0V1.4A1.4 1.4 0 0 1 14 0zM4.1 4.1a1.4 1.4 0 0 1 1.98 0l.99.99a1.4 1.4 0 1 1-1.98 1.98l-.99-.99a1.4 1.4 0 0 1 0-1.98zm19.8 0a1.4 1.4 0 0 1 0 1.98l-.99.99a1.4 1.4 0 0 1-1.98-1.98l.99-.99a1.4 1.4 0 0 1 1.98 0zM7 14a7 7 0 1 1 14 0 7 7 0 0 1-14 0zm-7 0a1.4 1.4 0 0 1 1.4-1.4h1.4a1.4 1.4 0 1 1 0 2.8H1.4A1.4 1.4 0 0 1 0 14zm23.8 0a1.4 1.4 0 0 1 1.4-1.4h1.4a1.4 1.4 0 1 1 0 2.8h-1.4a1.4 1.4 0 0 1-1.4-1.4zm-2.87 6.93a1.399 1.399 0 0 1 1.98 0l.99.99a1.401 1.401 0 0 1-1.526 2.283 1.401 1.401 0 0 1-.454-.303l-.99-.99a1.399 1.399 0 0 1 0-1.98zm-15.84 0a1.4 1.4 0 1 1 1.98 1.98l-.99.99a1.4 1.4 0 0 1-1.98-1.98l.99-.99zM14 23.8a1.4 1.4 0 0 1 1.4 1.4v1.4a1.4 1.4 0 1 1-2.8 0v-1.4a1.4 1.4 0 0 1 1.4-1.4z" fill="#676767"/></svg>
